X:0968
M:3/8
L:1/8
Q:3/8=40
K:G
z/g/|gba|gfe   |dBG|   E2 d   |Hg2G/A/|BcA   | FG||
z/g/|gba|gfe   |dBG|   E2 d   |Hg2G/A/|BcA   | FG|]

